dist/assets/img/logo.svg

<svg width="40" height="40" viewBox="0 0 40 40" fill="none" xmlns="http://www.w3.org/2000/svg">
<g clip-path="url(#clip0_0_231)">
<path d="M19.3111 0.0131836C18.044 0.0555031 16.7838 0.218654 15.5477 0.500417V17.0306C15.548 17.1511 15.5165 17.2695 15.4563 17.3738C15.3962 17.4782 15.3096 17.5649 15.2053 17.6251L3.9153 24.1585C2.17288 18.5488 4.17685 10.7756 10.4164 6.38861V14.4534L9.04848 15.236V9.34023C7.4353 10.9996 6.2201 13.0036 5.49452 15.201C4.76895 17.3984 4.55195 19.7318 4.8599 22.0252L14.1647 16.6356V0.86349C2.06751 4.54314 -3.52291 18.3889 2.34411 29.409L19.3111 19.6098V0.0131836Z" fill="#201311"/>
<path d="M3.03467 30.5866C3.70613 31.6657 4.47857 32.6785 5.34158 33.6116L19.6422 25.3456C19.7463 25.2855 19.8644 25.2538 19.9847 25.2538C20.1049 25.2538 20.223 25.2855 20.3271 25.3456L31.6322 31.8677C27.6487 36.1813 19.9169 38.3316 13.0037 35.1203L19.9979 31.0889L21.3583 31.8828L16.2552 34.8306C18.4977 35.3983 20.8399 35.4489 23.1048 34.9786C25.3697 34.5083 27.4981 33.5295 29.329 32.116L19.9979 26.7282L6.34451 34.6162C15.5816 43.2603 30.3658 41.191 36.9648 30.5904L19.9979 20.7911L3.03467 30.5866Z" fill="#201311"/>
<path d="M37.6385 29.409C38.2363 28.2875 38.7271 27.1122 39.1043 25.8986L24.7924 17.6326C24.6887 17.5723 24.6026 17.4858 24.5429 17.3818C24.4831 17.2778 24.4517 17.16 24.4518 17.04V3.98253C30.1777 5.27868 35.9036 10.9016 36.5829 18.4998L29.5944 14.459V12.8844L34.6974 15.8323C34.0681 13.6063 32.9413 11.5523 31.4022 9.82512C29.863 8.09798 27.9516 6.74281 25.8122 5.86186V16.6393L39.4731 24.5178C42.3389 12.1921 33.1545 0.417629 20.6791 0V19.606L37.6385 29.409Z" fill="#201311"/>
</g>
<defs>
<clipPath id="clip0_0_231">
<rect width="40" height="40" fill="white"/>
</clipPath>
</defs>
</svg>

<svg width="40" height="40" fill="none" xmlns="http://www.w3.org/2000/svg"><g clip-path="url(#clip0_0_231)" fill="#201311"><path d="M19.311.013A19.927 19.927 0 0015.548.5v16.53a.683.683 0 01-.343.595L3.915 24.16c-1.742-5.61.262-13.383 6.501-17.77v8.064l-1.368.783V9.34A15.282 15.282 0 004.86 22.025l9.305-5.39V.864C2.068 4.543-3.523 18.39 2.345 29.41l16.966-9.8V.014zM3.035 30.587a20.075 20.075 0 002.307 3.025l14.3-8.266a.685.685 0 01.685 0l11.305 6.522c-3.983 4.313-11.715 6.464-18.628 3.252l6.994-4.031 1.36.794-5.103 2.948a15.265 15.265 0 0013.074-2.715l-9.331-5.388-13.653 7.888c9.237 8.644 24.02 6.575 30.62-4.026l-16.967-9.799-16.963 9.796zm34.604-1.178a20.224 20.224 0 001.465-3.51l-14.312-8.266a.684.684 0 01-.34-.593V3.983c5.726 1.296 11.452 6.919 12.13 14.517l-6.988-4.041v-1.575l5.103 2.948a15.276 15.276 0 00-8.885-9.97v10.777l13.661 7.879C42.34 12.192 33.154.418 20.68 0v19.606l16.96 9.803z"/></g><defs><clipPath id="clip0_0_231"><path fill="#fff" d="M0 0h40v40H0z"/></clipPath></defs></svg>
